img/logo.svg

<svg width="240" height="71" viewBox="0 0 240 71" fill="none" xmlns="http://www.w3.org/2000/svg">
<path d="M-0.000488281 29.4695H8.67651L23.5765 54.2313L38.4815 29.4695H46.6695V70.4932H39.0635V41.597L26.0635 63.1271H20.5635L7.60551 41.597V70.4932H-0.000488281V29.4695Z" fill="#504333"/>
<path d="M57.6626 42.1863H70.7076V46.7379H66.8156V65.555H70.7076V70.1031H57.6626V65.555H61.5546V46.7379H57.6626V42.1863Z" fill="#504333"/>
<path d="M77.4656 56.1429C77.4656 47.6218 82.3126 41.571 91.8986 41.571C95.2488 41.5305 98.5762 42.2239 101.712 43.6158V48.5882C98.6998 47.2368 95.5161 46.4941 92.2946 46.3914C85.7156 46.3914 82.8676 49.8611 82.8676 56.1429C82.8676 62.4671 85.7486 65.9368 92.2246 65.9368C94.1506 65.963 96.0699 65.6653 97.9246 65.0529V56.6061H103.185V68.5957C99.4782 69.9608 95.6216 70.6756 91.7386 70.7171C82.9996 70.7194 77.4656 65.859 77.4656 56.1429Z" fill="#504333"/>
<path d="M111.396 42.1863H116.656V65.555H129.509V70.1031H111.396V42.1863Z" fill="#504333"/>
<path d="M135.258 42.1863H148.299V46.7379H144.407V65.555H148.299V70.1031H135.258V65.555H139.15V46.7379H135.258V42.1863Z" fill="#504333"/>
<path d="M155.052 56.1429C155.052 48.3195 159.407 41.571 168.533 41.571C177.927 41.571 182.014 48.164 182.014 56.1429C182.014 63.9698 177.662 70.7183 168.533 70.7183C159.146 70.7195 155.052 64.1265 155.052 56.1429ZM176.582 56.1429C176.582 50.9006 174.325 46.4692 168.533 46.4692C162.741 46.4692 160.484 50.9006 160.484 56.1429C160.484 61.3852 162.744 65.8201 168.533 65.8201C174.322 65.8201 176.582 61.3887 176.582 56.1429Z" fill="#504333"/>
<path d="M189.787 42.1863H199.818C206.909 42.1863 210.867 45.0796 210.867 50.5541C210.867 54.5223 208.676 57.147 204.817 58.381C205.64 58.8753 206.364 59.5708 206.942 60.4211L213.616 70.0983H207.041L201.156 61.4264C200.013 59.7281 199.524 59.4229 197.138 59.4229H195.046V70.1007H189.787V42.1863ZM195.047 46.7379V54.9125H199.263C203.674 54.9125 205.339 53.332 205.339 50.6331C205.339 48.0473 203.413 46.7438 199.263 46.7438L195.047 46.7379Z" fill="#504333"/>
<path d="M219.924 42.1863H239.871V46.7379H225.184V53.5217H237.776V58.0746H225.184V65.555H240.001V70.1031H219.924V42.1863Z" fill="#504333"/>
<path d="M42.0286 13.9972H43.2126V0.797183H42.0286V13.9972ZM55.7086 4.0029C55.0796 3.95554 54.4513 4.10713 53.8887 4.44198C53.3261 4.77683 52.8496 5.28278 52.5086 5.90747V4.07833H51.4206V13.9972H52.5566V8.79261C52.5144 8.31964 52.5608 7.84153 52.6924 7.39198C52.8241 6.94244 53.0378 6.53239 53.3185 6.19076C53.5992 5.84913 53.9401 5.58423 54.3171 5.41473C54.6941 5.24523 55.0981 5.17526 55.5006 5.20975C57.1006 5.20975 58.0286 6.28461 58.0286 8.37775V13.9972H59.1646V8.24575C59.1646 5.39361 57.7566 4.0029 55.7086 4.0029ZM71.0846 12.432C70.7339 12.7723 70.2906 12.9515 69.8366 12.9365C69.6337 12.9582 69.4293 12.9255 69.2388 12.8407C69.0482 12.756 68.8764 12.6215 68.7363 12.4472C68.5962 12.273 68.4914 12.0636 68.4298 11.8348C68.3681 11.606 68.3513 11.3637 68.3806 11.1262V5.20975H70.9406V4.07833H68.3806V1.90975H67.2446V4.07833H65.7446V5.20975H67.2446V11.2063C67.2098 11.5969 67.2497 11.9917 67.3615 12.3617C67.4733 12.7317 67.654 13.0675 67.8904 13.3443C68.1268 13.6211 68.4128 13.8319 68.7275 13.9612C69.0421 14.0905 69.3774 14.135 69.7086 14.0915C70.3522 14.1154 70.9819 13.868 71.4846 13.3938L71.0846 12.432ZM85.3846 9.03775C85.421 8.38463 85.3418 7.72972 85.1522 7.11452C84.9626 6.49932 84.6667 5.93725 84.2831 5.46391C83.8995 4.99057 83.4367 4.6163 82.924 4.3648C82.4113 4.1133 81.8598 3.99007 81.3046 4.0029C80.7484 3.99239 80.1964 4.11691 79.6829 4.36869C79.1693 4.62047 78.7053 4.99414 78.3196 5.46642C77.9338 5.93871 77.6347 6.49951 77.4408 7.11392C77.247 7.72833 77.1624 8.38319 77.1926 9.03775C77.1748 9.72042 77.278 10.3999 77.4956 11.0329C77.7132 11.6659 78.0405 12.2385 78.4564 12.7141C78.8723 13.1896 79.3678 13.5578 79.9113 13.7949C80.4547 14.0321 81.0341 14.1331 81.6126 14.0915C82.2228 14.1196 82.8308 13.9884 83.393 13.7072C83.9552 13.4261 84.4577 13.0019 84.8646 12.465L84.2246 11.5976C83.9014 12.0221 83.5034 12.3581 83.0584 12.582C82.6134 12.806 82.1322 12.9125 81.6486 12.894C81.2385 12.9255 80.8273 12.861 80.4385 12.7043C80.0497 12.5476 79.691 12.3018 79.3831 11.981C79.0753 11.6603 78.8243 11.2709 78.6447 10.8354C78.4651 10.3998 78.3604 9.92665 78.3366 9.44318H85.3766C85.3726 9.30175 85.3886 9.1509 85.3886 9.03775H85.3846ZM81.3046 5.14847C82.0705 5.12758 82.8129 5.46147 83.3723 6.07846C83.9317 6.69545 84.2635 7.54634 84.2966 8.44847H78.3286C78.3626 7.55009 78.6934 6.70301 79.2502 6.08817C79.807 5.47333 80.5457 5.13947 81.3086 5.1579L81.3046 5.14847ZM93.5926 6.0159V4.07833H92.5046V13.9972H93.6406V8.94347C93.6406 6.60518 94.7126 5.2899 96.4726 5.2899C96.5526 5.2899 96.6486 5.30875 96.7446 5.30875V4.01233C96.1093 3.93497 95.4691 4.08526 94.9074 4.44355C94.3458 4.80184 93.889 5.35147 93.5966 6.02061L93.5926 6.0159ZM104.169 1.90504C104.278 1.9076 104.388 1.88399 104.49 1.83562C104.591 1.78725 104.684 1.71512 104.762 1.62355C104.839 1.53198 104.901 1.42286 104.942 1.30273C104.983 1.1826 105.003 1.05394 105.001 0.924469C104.998 0.799347 104.974 0.676149 104.93 0.561937C104.887 0.447724 104.825 0.344744 104.747 0.258902C104.67 0.17306 104.579 0.106044 104.48 0.0616966C104.38 0.0173489 104.275 -0.0034586 104.169 0.00046815C103.952 -0.00333495 103.744 0.0935879 103.588 0.270155C103.432 0.446723 103.342 0.688653 103.337 0.943326C103.337 1.0717 103.359 1.19872 103.401 1.317C103.444 1.43528 103.505 1.54248 103.583 1.63237C103.661 1.72227 103.753 1.79308 103.854 1.84069C103.955 1.88831 104.064 1.91178 104.173 1.90975L104.169 1.90504ZM103.597 13.9972H104.733V4.07833H103.597V13.9972ZM116.141 14.0915C116.708 14.1132 117.273 13.9973 117.801 13.7508C118.328 13.5042 118.808 13.1324 119.208 12.6585C119.609 12.1845 119.922 11.6185 120.13 10.9957C120.337 10.3728 120.433 9.70634 120.413 9.03775C120.433 8.37014 120.336 7.70475 120.129 7.08308C119.921 6.46141 119.607 5.89679 119.206 5.42441C118.806 4.95203 118.327 4.58202 117.799 4.33745C117.272 4.09288 116.707 3.979 116.141 4.0029C115.573 3.97863 115.008 4.09211 114.479 4.3363C113.951 4.58049 113.471 4.95016 113.068 5.42235C112.666 5.89454 112.351 6.45916 112.142 7.08111C111.932 7.70307 111.834 8.36908 111.853 9.03775C111.834 9.7074 111.932 10.3745 112.141 10.9976C112.35 11.6208 112.665 12.1868 113.067 12.6605C113.469 13.1343 113.949 13.5058 114.478 13.7519C115.006 13.998 115.572 14.1136 116.141 14.0915ZM116.141 12.9035C115.714 12.9135 115.29 12.819 114.897 12.6261C114.503 12.4331 114.147 12.1458 113.852 11.7824C113.557 11.419 113.33 10.9874 113.184 10.5149C113.038 10.0425 112.977 9.53947 113.005 9.03775C112.977 8.53604 113.038 8.03302 113.184 7.56057C113.33 7.08812 113.557 6.65653 113.852 6.29312C114.147 5.92972 114.503 5.64243 114.897 5.44945C115.29 5.25647 115.714 5.16201 116.141 5.17204C116.567 5.16184 116.99 5.25632 117.383 5.44944C117.776 5.64256 118.131 5.9301 118.425 6.29374C118.719 6.65739 118.945 7.08918 119.09 7.56161C119.234 8.03404 119.294 8.53676 119.265 9.03775C119.294 9.53875 119.234 10.0415 119.09 10.5139C118.945 10.9863 118.719 11.4181 118.425 11.7818C118.131 12.1454 117.776 12.433 117.383 12.6261C116.99 12.8192 116.567 12.9137 116.141 12.9035ZM128.621 6.02061V4.07833H127.533V13.9972H128.665V8.94347C128.665 6.60518 129.737 5.2899 131.497 5.2899C131.577 5.2899 131.673 5.30875 131.769 5.30875V4.01233C131.133 3.93497 130.493 4.08526 129.931 4.44355C129.37 4.80184 128.913 5.35147 128.621 6.02061ZM149.997 14.0915C152.189 14.0915 153.469 12.9789 153.469 11.2629C153.469 7.45375 148.013 9.47147 148.013 6.79375C148.013 5.8509 148.685 5.15318 150.205 5.15318C151.085 5.13096 151.951 5.42708 152.685 6.00175L153.185 4.9269C152.282 4.30229 151.251 3.98261 150.205 4.0029C148.061 4.0029 146.877 5.20975 146.877 6.83147C146.877 10.7538 152.333 8.71718 152.333 11.3006C152.333 12.2812 151.677 12.9223 150.077 12.9223C149.005 12.9326 147.957 12.5432 147.085 11.8098L146.573 12.8705C147.571 13.706 148.773 14.1347 149.997 14.0915ZM164.653 4.0029C164.039 3.95806 163.427 4.10125 162.874 4.4185C162.322 4.73576 161.849 5.21626 161.501 5.81318V0.00518322H160.365V13.9972H161.501V8.79261C161.458 8.31964 161.505 7.84153 161.636 7.39198C161.768 6.94244 161.982 6.53239 162.263 6.19076C162.543 5.84913 162.884 5.58423 163.261 5.41473C163.638 5.24523 164.042 5.17526 164.445 5.20975C166.045 5.20975 166.973 6.28461 166.973 8.37775V13.9972H168.109V8.24575C168.109 5.39361 166.701 4.0029 164.653 4.0029ZM179.465 14.0915C180.032 14.1132 180.597 13.9973 181.125 13.7508C181.652 13.5042 182.132 13.1324 182.532 12.6585C182.933 12.1845 183.246 11.6185 183.454 10.9957C183.661 10.3728 183.757 9.70634 183.737 9.03775C183.757 8.37014 183.66 7.70475 183.453 7.08308C183.245 6.46141 182.931 5.89679 182.53 5.42441C182.13 4.95203 181.651 4.58202 181.123 4.33745C180.596 4.09288 180.031 3.979 179.465 4.0029C178.897 3.97863 178.332 4.09211 177.803 4.3363C177.275 4.58049 176.795 4.95016 176.392 5.42235C175.99 5.89454 175.675 6.45916 175.466 7.08111C175.257 7.70307 175.158 8.36908 175.177 9.03775C175.158 9.7074 175.256 10.3745 175.465 10.9976C175.674 11.6208 175.989 12.1868 176.391 12.6605C176.793 13.1343 177.273 13.5058 177.802 13.7519C178.33 13.998 178.896 14.1136 179.465 14.0915ZM179.465 12.9035C179.038 12.9135 178.614 12.819 178.221 12.6261C177.827 12.4331 177.471 12.1458 177.176 11.7824C176.881 11.419 176.654 10.9874 176.508 10.5149C176.362 10.0425 176.301 9.53947 176.329 9.03775C176.301 8.53604 176.362 8.03302 176.508 7.56057C176.654 7.08812 176.881 6.65653 177.176 6.29312C177.471 5.92972 177.827 5.64243 178.221 5.44945C178.614 5.25647 179.038 5.16201 179.465 5.17204C179.89 5.16251 180.313 5.25747 180.706 5.45088C181.099 5.6443 181.453 5.93194 181.747 6.29551C182.04 6.65909 182.266 7.09064 182.41 7.56274C182.555 8.03484 182.614 8.53716 182.585 9.03775C182.614 9.53835 182.555 10.0407 182.41 10.5128C182.266 10.9849 182.04 11.4164 181.747 11.78C181.453 12.1436 181.099 12.4312 180.706 12.6246C180.313 12.818 179.89 12.913 179.465 12.9035ZM195.197 4.0029C194.551 3.97494 193.91 4.14858 193.34 4.50622C192.77 4.86386 192.29 5.3928 191.949 6.03947V4.07833H190.865V17.6508H192.001V12.1303C192.346 12.753 192.821 13.2606 193.381 13.6041C193.94 13.9475 194.566 14.1154 195.197 14.0915C195.76 14.1113 196.32 13.9932 196.843 13.7448C197.366 13.4963 197.839 13.1228 198.233 12.6479C198.627 12.173 198.933 11.607 199.132 10.9856C199.331 10.3642 199.418 9.70098 199.389 9.03775C199.417 8.37585 199.328 7.71427 199.128 7.09474C198.929 6.4752 198.622 5.91113 198.228 5.4381C197.834 4.96507 197.362 4.59334 196.84 4.34632C196.318 4.09931 195.759 3.98238 195.197 4.0029ZM195.117 12.9035C194.69 12.9135 194.266 12.819 193.872 12.6261C193.479 12.4331 193.123 12.1458 192.828 11.7824C192.533 11.419 192.306 10.9874 192.16 10.5149C192.014 10.0425 191.953 9.53947 191.981 9.03775C191.954 8.53641 192.016 8.03408 192.163 7.56235C192.309 7.09061 192.537 6.65967 192.831 6.29661C193.126 5.93355 193.481 5.64623 193.874 5.45269C194.267 5.25916 194.69 5.16361 195.117 5.17204C195.542 5.16536 195.965 5.26211 196.357 5.45625C196.75 5.65039 197.104 5.93776 197.398 6.30044C197.693 6.66313 197.92 7.09335 198.067 7.5643C198.214 8.03525 198.277 8.53682 198.253 9.03775C198.279 9.5391 198.217 10.0414 198.07 10.5132C197.924 10.9849 197.696 11.4158 197.402 11.7789C197.107 12.142 196.752 12.4293 196.359 12.6228C195.966 12.8163 195.543 12.9119 195.117 12.9035Z" fill="#333333"/>
</svg>

<svg xmlns="http://www.w3.org/2000/svg" width="240" height="71" fill="none"><path fill="#504333" d="M0 29.47h8.677l14.9 24.761L38.48 29.47h8.188v41.023h-7.605V41.597l-13 21.53h-5.5L7.606 41.597v28.896H0zM57.663 42.186h13.045v4.552h-3.892v18.817h3.892v4.548H57.663v-4.548h3.892V46.738h-3.892zM77.466 56.143c0-8.521 4.847-14.572 14.433-14.572 3.35-.04 6.677.653 9.813 2.045v4.972a24.9 24.9 0 0 0-9.417-2.197c-6.58 0-9.427 3.47-9.427 9.752 0 6.324 2.88 9.794 9.357 9.794a17.4 17.4 0 0 0 5.7-.884v-8.447h5.26v11.99a34.1 34.1 0 0 1-11.446 2.121c-8.74.002-14.273-4.858-14.273-14.574M111.396 42.186h5.26v23.369h12.853v4.548h-18.113zM135.258 42.186h13.041v4.552h-3.892v18.817h3.892v4.548h-13.041v-4.548h3.892V46.738h-3.892zM155.052 56.143c0-7.824 4.355-14.572 13.481-14.572 9.394 0 13.481 6.593 13.481 14.572 0 7.827-4.352 14.575-13.481 14.575-9.387.001-13.481-6.592-13.481-14.575m21.53 0c0-5.242-2.257-9.674-8.049-9.674s-8.049 4.432-8.049 9.674 2.26 9.677 8.049 9.677 8.049-4.431 8.049-9.677M189.787 42.186h10.031c7.091 0 11.049 2.894 11.049 8.368 0 3.968-2.191 6.593-6.05 7.827a6.9 6.9 0 0 1 2.125 2.04l6.674 9.677h-6.575l-5.885-8.672c-1.143-1.698-1.632-2.003-4.018-2.003h-2.092V70.1h-5.259zm5.26 4.552v8.175h4.216c4.411 0 6.076-1.581 6.076-4.28 0-2.586-1.926-3.89-6.076-3.89zM219.924 42.186h19.947v4.552h-14.687v6.784h12.592v4.553h-12.592v7.48h14.817v4.548h-20.077z"/><path fill="#333" d="M42.029 13.997h1.184V.797h-1.184zm13.68-9.994a3.1 3.1 0 0 0-1.82.439c-.563.335-1.04.84-1.38 1.465V4.078H51.42v9.92h1.136V8.792a3.8 3.8 0 0 1 .135-1.401c.132-.45.346-.86.627-1.201a2.8 2.8 0 0 1 .998-.776 2.4 2.4 0 0 1 1.184-.205c1.6 0 2.528 1.075 2.528 3.168v5.62h1.136V8.245c0-2.852-1.408-4.243-3.456-4.243m15.376 8.429c-.351.34-.794.52-1.248.505a1.16 1.16 0 0 1-.598-.096 1.35 1.35 0 0 1-.503-.394 1.7 1.7 0 0 1-.306-.612 1.9 1.9 0 0 1-.05-.709V5.21h2.56V4.078h-2.56V1.91h-1.135v2.168h-1.5V5.21h1.5v5.996c-.035.39.005.786.117 1.156.111.37.292.706.528.982.237.277.523.488.838.617.314.13.65.174.98.13.644.024 1.274-.223 1.777-.697zm14.3-3.394a5.5 5.5 0 0 0-.233-1.923 4.9 4.9 0 0 0-.869-1.651 4.1 4.1 0 0 0-1.359-1.1 3.5 3.5 0 0 0-1.62-.361 3.5 3.5 0 0 0-1.621.366 4.1 4.1 0 0 0-1.363 1.097 5 5 0 0 0-.88 1.648 5.6 5.6 0 0 0-.247 1.924 5.7 5.7 0 0 0 .303 1.995 5 5 0 0 0 .96 1.681c.416.476.912.844 1.455 1.08a3.6 3.6 0 0 0 1.702.297 3.6 3.6 0 0 0 1.78-.384 4.2 4.2 0 0 0 1.472-1.242l-.64-.867a3.4 3.4 0 0 1-1.167.984c-.445.224-.926.33-1.41.312a2.7 2.7 0 0 1-1.21-.19 3.05 3.05 0 0 1-1.055-.723 3.7 3.7 0 0 1-.738-1.146 4.2 4.2 0 0 1-.308-1.392h7.04c-.004-.141.012-.292.012-.405zm-4.08-3.89c.765-.02 1.508.313 2.067.93s.891 1.468.925 2.37h-5.968c.034-.898.364-1.745.921-2.36s1.296-.949 2.059-.93zm12.288.868V4.078h-1.088v9.92h1.136V8.942c0-2.338 1.072-3.653 2.832-3.653.08 0 .176.019.272.019V4.012a2.78 2.78 0 0 0-1.838.432c-.561.358-1.018.907-1.31 1.577zm10.576-4.111a.7.7 0 0 0 .321-.07.8.8 0 0 0 .272-.211q.117-.14.18-.321a1.082 1.082 0 0 0-.012-.74 1 1 0 0 0-.183-.304.8.8 0 0 0-.267-.197.7.7 0 0 0-.311-.062.76.76 0 0 0-.581.27 1.05 1.05 0 0 0-.187 1.047q.065.179.182.315.118.136.271.209.154.07.319.069zm-.572 12.092h1.136V4.078h-1.136zm12.544.095a3.6 3.6 0 0 0 1.66-.341 4.16 4.16 0 0 0 1.407-1.092c.401-.475.714-1.04.922-1.663.207-.623.303-1.29.283-1.958a5.7 5.7 0 0 0-.284-1.955 5 5 0 0 0-.923-1.659 4.1 4.1 0 0 0-1.407-1.087 3.6 3.6 0 0 0-1.658-.334 3.6 3.6 0 0 0-1.662.333 4.2 4.2 0 0 0-1.411 1.086 5 5 0 0 0-.926 1.66 5.6 5.6 0 0 0-.289 1.956c-.019.67.079 1.336.288 1.96s.524 1.189.926 1.663c.402.473.882.845 1.411 1.09a3.6 3.6 0 0 0 1.663.34m0-1.189a2.7 2.7 0 0 1-1.244-.277 3.1 3.1 0 0 1-1.045-.844 3.8 3.8 0 0 1-.668-1.267 4.2 4.2 0 0 1-.179-1.477 4.2 4.2 0 0 1 .179-1.477 3.8 3.8 0 0 1 .668-1.268c.295-.363.651-.65 1.045-.844a2.7 2.7 0 0 1 1.244-.277c.426-.01.849.084 1.242.277.393.194.748.481 1.042.845.294.363.52.795.665 1.268.144.472.204.975.175 1.476a4.2 4.2 0 0 1-.175 1.476 3.8 3.8 0 0 1-.665 1.268 3.1 3.1 0 0 1-1.042.844 2.66 2.66 0 0 1-1.242.277m12.48-6.882V4.078h-1.088v9.92h1.132V8.942c0-2.338 1.072-3.653 2.832-3.653.08 0 .176.019.272.019V4.012a2.78 2.78 0 0 0-1.838.432c-.561.358-1.018.907-1.31 1.577m21.376 8.07c2.192 0 3.472-1.112 3.472-2.828 0-3.81-5.456-1.792-5.456-4.47 0-.942.672-1.64 2.192-1.64.88-.022 1.746.274 2.48.849l.5-1.075c-.903-.625-1.934-.944-2.98-.924-2.144 0-3.328 1.207-3.328 2.828 0 3.923 5.456 1.886 5.456 4.47 0 .98-.656 1.621-2.256 1.621-1.072.01-2.12-.379-2.992-1.112l-.512 1.06c.998.836 2.2 1.265 3.424 1.222m14.656-10.088a3.1 3.1 0 0 0-1.779.415 3.8 3.8 0 0 0-1.373 1.395V.005h-1.136v13.992h1.136V8.793a3.8 3.8 0 0 1 .135-1.401c.132-.45.346-.86.627-1.201.28-.342.621-.607.998-.776s.781-.24 1.184-.205c1.6 0 2.528 1.075 2.528 3.168v5.62h1.136V8.245c0-2.852-1.408-4.243-3.456-4.243m14.812 10.089a3.6 3.6 0 0 0 1.66-.341 4.16 4.16 0 0 0 1.407-1.092c.401-.475.714-1.04.922-1.663.207-.623.303-1.29.283-1.958a5.7 5.7 0 0 0-.284-1.955 5 5 0 0 0-.923-1.659 4.1 4.1 0 0 0-1.407-1.087 3.6 3.6 0 0 0-1.658-.334 3.6 3.6 0 0 0-1.662.333 4.2 4.2 0 0 0-1.411 1.086 5 5 0 0 0-.926 1.66 5.7 5.7 0 0 0-.289 1.956c-.019.67.079 1.336.288 1.96s.524 1.189.926 1.663c.402.473.882.845 1.411 1.09a3.6 3.6 0 0 0 1.663.34m0-1.189a2.7 2.7 0 0 1-1.244-.277 3.1 3.1 0 0 1-1.045-.844 3.8 3.8 0 0 1-.668-1.267 4.2 4.2 0 0 1-.179-1.477 4.2 4.2 0 0 1 .179-1.477 3.8 3.8 0 0 1 .668-1.268c.295-.363.651-.65 1.045-.844a2.7 2.7 0 0 1 1.244-.277c.425-.01.848.085 1.241.279.393.193.747.48 1.041.845.293.363.519.795.663 1.267s.204.974.175 1.475c.029.5-.03 1.003-.175 1.475-.144.472-.37.903-.663 1.267a3.1 3.1 0 0 1-1.041.845 2.7 2.7 0 0 1-1.241.278m15.732-8.9a3.2 3.2 0 0 0-1.857.503c-.57.358-1.05.887-1.391 1.533V4.08h-1.084V17.65h1.136v-5.52a3.97 3.97 0 0 0 1.38 1.473 3.23 3.23 0 0 0 1.816.488 3.54 3.54 0 0 0 1.646-.347 4.1 4.1 0 0 0 1.39-1.097c.394-.475.7-1.041.899-1.662a5.6 5.6 0 0 0 .257-1.948 5.6 5.6 0 0 0-.261-1.943 5 5 0 0 0-.9-1.657 4.1 4.1 0 0 0-1.388-1.092 3.5 3.5 0 0 0-1.643-.343m-.08 8.9a2.7 2.7 0 0 1-1.245-.277 3.1 3.1 0 0 1-1.044-.844 3.8 3.8 0 0 1-.668-1.267 4.2 4.2 0 0 1-.179-1.477 4.2 4.2 0 0 1 .182-1.476c.146-.471.374-.902.668-1.265s.65-.65 1.043-.844.816-.29 1.243-.281c.425-.007.848.09 1.24.284.393.194.747.482 1.041.844.295.363.522.793.669 1.264s.21.973.186 1.474a4.2 4.2 0 0 1-.183 1.475 3.8 3.8 0 0 1-.668 1.266c-.295.363-.65.65-1.043.844s-.816.289-1.242.28"/></svg>
